!! 00000] TT[WS
!!!OTL: Yuanzou gaofei  gebuxiage ni
!!!ARE: Asia, China,ÿShanxi Ningwu
!! Ethnic Group: Han
!! WI, 129 (1)
!!!SCT: J0154
!!!YEM: Copyright 1995, estate of Helmut Schaffrath.
**kern
*ICvox
*Ivox
*M2/4
*k[f#]
*G:
{8a
8f#
4e
=1
8.ee
16ee
8b
8ee
=2
8b
8ee
8a
8e
=3
2g}
=4
{4b
4ee
=5
8g
8e
8dd
8b
=6
8a
16b
16dd
8f#
8e
=7
2d}
==
!!!AGN: Xiaodiao. Qingge
!!!ONB: ESAC (Essen Associative Code) Database: CHINA
!!!AMT: simple duple
!!!AIN: vox
!!!EED: Helmut Schaffrath
!!!EEV: 1.0
*-
